X:38
T:Maddox's Delight. JJo.038
B:J.Johnson Choice Collection Vol 8 1758
Z:vmp.Simon Wilson 2013 www.village-music-project.org.uk
Z:Dance added by John Chambers 2017
M:6/8
L:1/8
%Q:3/8=120
K:D
A |\
dfa gec | dAG FED | CDE FGA | Bcd AFD |\
EF^G ABc | def e^ga | fdB {cd}e3 | dB^G A2 :|
|: A |\
AB=c BGG, | B^cd c2A | Bcd efg | agf {f}e2a |\
bgd G2{ga}b | afd F2d | Bgf edc | dAFD2 :|
%%begintext align
%% Right hands across .|. back again
%% Left hands across .||. Lead thro' the
%% 3d Cu. foot it to your Partner :||.
%% Right and Left at top :||:
%%endtext
